X:174
T:Cainc yr Aradwr - The Ploughman's Tune
M:3/4
L:1/8
Q:90
C:Trad.
R:Slow air
K:G
d2 | cc B3 A | AG G F2 G | AB c3 B | AG FD d2 | cc B3 B|
AG F D2 D | GA/B/ c2 B2 | AG F D3 || G4 d2|
FE D4 |G4 cA | d2 c2 B2 | A2 GE FD | G4 A2 | G4 |
